; HEADER_BLOCK_START
; generated by OrcaSlicer 2.3.0 on 2025-04-19 at 16:48:06
; total layer number: 50
;_GP_TOTAL_LAYER_NUMBER_PLACEHOLDER
; filament_density: 1.24,1.24
; filament_diameter: 1.75,1.75
; max_z_height: 10.00
; HEADER_BLOCK_END

; THUMBNAIL_BLOCK_START

;
; THUMBNAIL_BLOCK_END

; THUMBNAIL_BLOCK_START

;
; THUMBNAIL_BLOCK_END

; external perimeters extrusion width = 0.40mm
; perimeters extrusion width = 0.45mm
; infill extrusion width = 0.45mm
; solid infill extrusion width = 0.40mm
; top infill extrusion width = 0.40mm
; first layer extrusion width = 0.50mm

; EXECUTABLE_BLOCK_START
M73 P0 R11
M201 X10000 Y10000 Z500 E5000
M203 X500 Y500 Z10 E60
M204 P10000 R1000 T10000
M205 X8.00 Y8.00 Z0.40 E5.00 ; sets the jerk limits, mm/sec
;TYPE:Custom
G90 ; use absolute coordinates
M83 ; extruder relative mode
M204 S10000 T1000
M104 S220 ; set extruder temp
M140 S55 ; set bed temp
G28 ; home all
G1 Y1.0 Z0.3 F1000 ; move print head up
M190 S55 ; wait for bed temp
M109 S220 ; wait for extruder temp
G92 E0.0
G90
G21
M83 ; use relative distances for extrusion
; Filament gcode
T0
M106 S0
;LAYER_CHANGE
;Z:0.2
;HEIGHT:0.2
;BEFORE_LAYER_CHANGE
;0.2
G92 E0

G1 E-.9 F2700
;AFTER_LAYER_CHANGE
;0.2
;_SET_FAN_SPEED_CHANGING_LAYER
M204 S500
; printing object Cylinder id:0 copy 0
G1 X148.765 Y97.503 F9000
G1 Z.6
G1 Z.2
G1 E.9 F2100
;TYPE:Inner wall
;WIDTH:0.499999
G1 F2700
G1 X148.787 Y97.87 E.01369
G3 X148.832 Y99.574 I-48.787 J2.13 E.0635
G1 X148.832 Y100.427 E.03176
G3 X148.683 Y96.169 I-48.831 J-.427 E11.26938
G1 X148.763 Y97.463 E.0483
M73 P1 R11
G1 X149.221 Y97.475 F9000
G1 F2700
G1 X149.244 Y97.85 E.01399
G3 X149.289 Y99.57 I-49.243 J2.15 E.06409
G1 X149.289 Y100.431 E.03206
G3 X149.139 Y96.133 I-49.288 J-.431 E11.37486
G1 X149.219 Y97.435 E.04859
M73 P2 R11
G1 X149.677 Y97.447 F9000
;TYPE:Outer wall
G1 F2700
G1 X149.701 Y97.83 E.01429
G3 X149.746 Y99.566 I-49.7 J2.17 E.06469
G1 X149.746 Y100.435 E.03235
G3 X149.595 Y96.097 I-49.745 J-.435 E11.48034
G1 X149.675 Y97.407 E.04889
M73 P3 R11
; stop printing object Cylinder id:0 copy 0
M106 S255
;LAYER_CHANGE
;Z:0.4
;HEIGHT:0.2
;BEFORE_LAYER_CHANGE
;0.4
G92 E0

G1 E-.9 F2700
;AFTER_LAYER_CHANGE
;0.4
;_SET_FAN_SPEED_CHANGING_LAYER
M204 S1000
; printing object Cylinder id:0 copy 0
G1 X148.94 Y97.515 Z.8 F9000
G1 Z.4
G1 E.9 F2100
;TYPE:Inner wall
;WIDTH:0.449999
G1 F4800
G1 X148.992 Y98.718 E.03992
G3 X149.007 Y99.573 I-48.991 J1.282 E.02838
G1 X149.007 Y100.429 E.0284
G3 X148.918 Y97.009 I-49.006 J-.429 E10.10095
G1 X148.938 Y97.475 E.01549
M73 P3 R10
G1 X149.346 Y97.497 F9000
G1 F4800
G1 X149.399 Y98.707 E.04016
G3 X149.414 Y99.569 I-49.398 J1.293 E.02861
G1 X149.414 Y100.432 E.02863
G3 X149.324 Y96.984 I-49.413 J-.432 E10.18485
G1 X149.345 Y97.457 E.01572
M73 P4 R10
G1 X149.728 Y97.481 F9000
;TYPE:Outer wall
;WIDTH:0.399999
G1 F3600
G1 X149.781 Y98.697 E.03542
G3 X149.796 Y99.566 I-49.78 J1.303 E.02529
G1 X149.796 Y100.436 E.02531
G3 X149.705 Y96.961 I-49.795 J-.436 E9.00296
G1 X149.726 Y97.441 E.01399
M73 P5 R10
; stop printing object Cylinder id:0 copy 0
;LAYER_CHANGE
;Z:0.6
;HEIGHT:0.2
;BEFORE_LAYER_CHANGE
;0.6
G92 E0

G1 E-.9 F2700
;AFTER_LAYER_CHANGE
;0.6
;_SET_FAN_SPEED_CHANGING_LAYER
; printing object Cylinder id:0 copy 0
G1 X148.944 Y97.566 Z1 F9000
G1 Z.6
G1 E.9 F2100
;TYPE:Inner wall
;WIDTH:0.449999
G1 F4800
G1 X148.96 Y97.864 E.00989
G3 X149.003 Y100.855 I-51.083 J2.229 E.09925
G3 X148.742 Y94.877 I-49.002 J-.855 E10.01622
G3 X148.858 Y96.167 I-50.865 J5.216 E.04296
G1 X148.942 Y97.527 E.0452
G1 X149.35 Y97.542 F9000
G1 F4800
G1 X149.367 Y97.846 E.01012
G3 X149.41 Y100.863 I-51.508 J2.247 E.10008
G3 X149.147 Y94.834 I-49.409 J-.863 E10.09942
G3 X149.264 Y96.135 I-51.288 J5.259 E.04331
M73 P6 R10
G1 X149.348 Y97.502 E.04543
G1 X149.732 Y97.518 F9000
;TYPE:Outer wall
;WIDTH:0.399999
G1 F3600
G1 X149.749 Y97.83 E.00907
G3 X149.792 Y100.869 I-51.907 J2.265 E.08846
G3 X149.527 Y94.795 I-49.791 J-.869 E8.92745
G3 X149.645 Y96.105 I-51.685 J5.3 E.03828
M73 P7 R10
G1 X149.729 Y97.478 E.04005
; stop printing object Cylinder id:0 copy 0
;LAYER_CHANGE
;Z:0.8
;HEIGHT:0.2
;BEFORE_LAYER_CHANGE
;0.8
G92 E0

G1 E-.9 F2700
;AFTER_LAYER_CHANGE
;0.8
;_SET_FAN_SPEED_CHANGING_LAYER
; printing object Cylinder id:0 copy 0
G1 X148.943 Y97.592 Z1.2 F9000
G1 Z.8
G1 E.9 F2100
;TYPE:Inner wall
;WIDTH:0.449999
G1 F4800
G1 X148.986 Y98.718 E.03738
G3 X149.003 Y100.855 I-53.186 J1.502 E.0709
G3 X148.645 Y94.027 I-49 J-.856 E9.98725
G3 X148.91 Y97.011 I-52.845 J6.194 E.0994
G1 X148.941 Y97.552 E.01799
G1 X149.35 Y97.575 F9000
G1 F4800
G1 X149.393 Y98.708 E.03761
G3 X149.41 Y100.863 I-53.629 J1.514 E.07148
G3 X149.05 Y93.977 I-49.407 J-.863 E10.07022
G3 X149.317 Y96.986 I-53.285 J6.245 E.10022
M73 P8 R10
G1 X149.347 Y97.535 E.01822
G1 X149.731 Y97.558 F9000
;TYPE:Outer wall
;WIDTH:0.399999
G1 F3600
G1 X149.775 Y98.698 E.03319
G3 X149.792 Y100.869 I-54.044 J1.526 E.06319
G3 X149.429 Y93.931 I-49.789 J-.869 E8.90164
G3 X149.698 Y96.963 I-53.699 J6.293 E.08858
M73 P9 R10
G1 X149.729 Y97.518 E.01618
; stop printing object Cylinder id:0 copy 0
;LAYER_CHANGE
;Z:1
;HEIGHT:0.2
;BEFORE_LAYER_CHANGE
;1
G92 E0

G1 E-.9 F2700
;AFTER_LAYER_CHANGE
;1
;_SET_FAN_SPEED_CHANGING_LAYER
; printing object Cylinder id:0 copy 0
G1 X148.949 Y97.646 Z1.4 F9000
G1 Z1
G1 E.9 F2100
;TYPE:Inner wall
;WIDTH:0.449999
G1 F4800
G1 X148.956 Y97.863 E.00717
G3 X149.003 Y100.855 I-51.03 J2.302 E.09931
G3 X148.337 Y91.911 I-49.003 J-.845 E9.91694
G3 X148.85 Y96.156 I-50.411 J8.253 E.14185
G1 X148.946 Y97.606 E.04823
G1 X149.355 Y97.622 F9000
G1 F4800
G1 X149.363 Y97.845 E.00741
G3 X149.41 Y100.863 I-51.454 J2.321 E.10013
G3 X148.738 Y91.844 I-49.41 J-.852 E9.99929
G3 X149.256 Y96.124 I-50.83 J8.322 E.14303
M73 P10 R10
G1 X149.353 Y97.582 E.04847
G1 X149.737 Y97.598 F9000
;TYPE:Outer wall
;WIDTH:0.399999
G1 F3600
G1 X149.744 Y97.828 E.00669
G3 X149.792 Y100.869 I-51.852 J2.339 E.08851
G3 X149.115 Y91.781 I-49.792 J-.859 E8.83893
G3 X149.637 Y96.094 I-51.223 J8.386 E.12643
M73 P11 R10
G1 X149.734 Y97.558 E.04271
; stop printing object Cylinder id:0 copy 0
;LAYER_CHANGE
;Z:1.2
;HEIGHT:0.2
;BEFORE_LAYER_CHANGE
;1.2
G92 E0

G1 E-.9 F2700
;AFTER_LAYER_CHANGE
;1.2
;_SET_FAN_SPEED_CHANGING_LAYER
; printing object Cylinder id:0 copy 0
G1 X148.952 Y97.688 Z1.6 F9000
G1 Z1.2
G1 E.9 F2100
;TYPE:Inner wall
;WIDTH:0.449999
G1 F4800
G1 X148.956 Y97.863 E.00581
G3 X149.003 Y100.855 I-50.723 J2.292 E.09929
G3 X148.11 Y90.647 I-49 J-.856 E9.87374
G3 X148.851 Y96.157 I-49.877 J9.507 E.18448
G1 X148.949 Y97.648 E.04959
G1 X149.358 Y97.663 F9000
G1 F4800
G1 X149.363 Y97.845 E.00604
G3 X149.41 Y100.863 I-51.145 J2.311 E.10011
G3 X148.51 Y90.57 I-49.407 J-.863 E9.95577
G3 X149.256 Y96.125 I-50.292 J9.586 E.186
M73 P12 R10
G1 X149.355 Y97.623 E.04982
G1 X149.739 Y97.64 F9000
;TYPE:Outer wall
;WIDTH:0.399999
G1 F3600
G1 X149.745 Y97.829 E.00549
G3 X149.792 Y100.869 I-51.541 J2.329 E.0885
G3 X148.885 Y90.498 I-49.789 J-.87 E8.80047
G3 X149.637 Y96.095 I-50.681 J9.66 E.16441
M73 P13 R9
G1 X149.737 Y97.6 E.0439
; stop printing object Cylinder id:0 copy 0
;LAYER_CHANGE
;Z:1.4
;HEIGHT:0.2
;BEFORE_LAYER_CHANGE
;1.4
G92 E0

G1 E-.9 F2700
;AFTER_LAYER_CHANGE
;1.4
;_SET_FAN_SPEED_CHANGING_LAYER
; printing object Cylinder id:0 copy 0
G1 X148.949 Y97.718 Z1.8 F9000
G1 Z1.4
G1 E.9 F2100
;TYPE:Inner wall
;WIDTH:0.449999
G1 F4800
G1 X148.986 Y98.719 E.03325
G3 X149.003 Y100.855 I-53.169 J1.5 E.07087
G3 X148.645 Y94.026 I-49 J-.856 E9.98724
G3 X148.91 Y97.013 I-52.828 J6.193 E.0995
G1 X148.946 Y97.678 E.02207
G1 X149.355 Y97.7 F9000
G1 F4800
G1 X149.393 Y98.709 E.03349
G3 X149.41 Y100.863 I-53.612 J1.513 E.07145
G3 X149.049 Y93.977 I-49.407 J-.863 E10.07021
G3 X149.317 Y96.989 I-53.269 J6.244 E.10031
M73 P14 R9
G1 X149.353 Y97.66 E.0223
G1 X149.737 Y97.683 F9000
;TYPE:Outer wall
;WIDTH:0.399999
G1 F3600
G1 X149.775 Y98.699 E.02957
G3 X149.792 Y100.869 I-54.029 J1.524 E.06316
G3 X149.429 Y93.931 I-49.789 J-.869 E8.90163
G3 X149.698 Y96.965 I-53.683 J6.292 E.08865
M73 P15 R9
G1 X149.735 Y97.643 E.01976
; stop printing object Cylinder id:0 copy 0
;LAYER_CHANGE
;Z:1.6
;HEIGHT:0.2
;BEFORE_LAYER_CHANGE
;1.6
G92 E0

G1 E-.9 F2700
;AFTER_LAYER_CHANGE
;1.6
;_SET_FAN_SPEED_CHANGING_LAYER
; printing object Cylinder id:0 copy 0
G1 X148.957 Y97.768 Z2 F9000
G1 Z1.6
G1 E.9 F2100
;TYPE:Inner wall
;WIDTH:0.449999
G1 F4800
G1 X148.956 Y97.864 E.00317
G3 X149.003 Y100.855 I-50.722 J2.291 E.09926
G3 X148.11 Y90.647 I-49 J-.856 E9.87373
G3 X148.911 Y97.01 I-49.875 J9.507 E.21286
G1 X148.955 Y97.728 E.02388
G1 X149.364 Y97.747 F9000
G1 F4800
G1 X149.363 Y97.846 E.00329
G3 X149.41 Y100.863 I-51.144 J2.31 E.10009
G3 X148.51 Y90.57 I-49.407 J-.863 E9.95576
G3 X149.317 Y96.985 I-50.29 J9.586 E.21461
M73 P16 R9
G1 X149.361 Y97.707 E.024
G1 X149.745 Y97.727 F9000
;TYPE:Outer wall
;WIDTH:0.399999
G1 F3600
G1 X149.745 Y97.829 E.00298
G3 X149.792 Y100.869 I-51.54 J2.328 E.08847
G3 X148.885 Y90.497 I-49.789 J-.87 E8.80047
G3 X149.698 Y96.961 I-50.68 J9.66 E.1897
G1 X149.743 Y97.687 E.02115
; stop printing object Cylinder id:0 copy 0
;LAYER_CHANGE
;Z:1.8
;HEIGHT:0.2
;BEFORE_LAYER_CHANGE
;1.8
G92 E0

G1 E-.9 F2700
;AFTER_LAYER_CHANGE
;1.8
;_SET_FAN_SPEED_CHANGING_LAYER
; printing object Cylinder id:0 copy 0
G1 X148.952 Y97.807 Z2.2 F9000
G1 Z1.8
M73 P17 R9
G1 E.9 F2100
;TYPE:Inner wall
;WIDTH:0.449999
G1 F4800
G1 X148.986 Y98.723 E.03041
G3 X149.003 Y100.855 I-53.156 J1.496 E.07075
G3 X148.645 Y94.026 I-49 J-.856 E9.98723
G3 X148.911 Y97.015 I-52.815 J6.193 E.09956
G1 X148.95 Y97.767 E.02497
G1 X149.359 Y97.789 F9000
G1 F4800
G1 X149.393 Y98.712 E.03064
G3 X149.41 Y100.863 I-53.599 J1.508 E.07134
G3 X149.049 Y93.977 I-49.407 J-.863 E10.0702
G3 X149.317 Y96.99 I-53.256 J6.244 E.10037
M73 P18 R9
G1 X149.357 Y97.749 E.02521
G1 X149.741 Y97.772 F9000
;TYPE:Outer wall
;WIDTH:0.399999
G1 F3600
G1 X149.775 Y98.702 E.02707
G3 X149.792 Y100.869 I-54.016 J1.52 E.06306
G3 X149.429 Y93.931 I-49.789 J-.869 E8.90163
G3 X149.698 Y96.967 I-53.67 J6.292 E.0887
G1 X149.739 Y97.732 E.02231
; stop printing object Cylinder id:0 copy 0
;LAYER_CHANGE
;Z:2
;HEIGHT:0.2
;BEFORE_LAYER_CHANGE
;2
G92 E0

G1 E-.9 F2700
;AFTER_LAYER_CHANGE
;2
;_SET_FAN_SPEED_CHANGING_LAYER
; printing object Cylinder id:0 copy 0
G1 X148.954 Y97.853 Z2.4 F9000
G1 Z2
G1 E.9 F2100
;TYPE:Inner wall
;WIDTH:0.449999
G1 F4800
G1 X148.986 Y98.72 E.02879
G3 X149.003 Y100.855 I-53.149 J1.498 E.07084
G3 X148.645 Y94.026 I-49 J-.856 E9.98723
G3 X148.911 Y97.016 I-52.808 J6.193 E.09959
M73 P19 R9
G1 X148.952 Y97.813 E.02647
G1 X149.361 Y97.835 F9000
G1 F4800
G1 X149.393 Y98.71 E.02903
G3 X149.41 Y100.863 I-53.593 J1.511 E.07142
G3 X149.049 Y93.977 I-49.407 J-.863 E10.0702
G3 X149.317 Y96.991 I-53.25 J6.244 E.1004
M73 P20 R9
G1 X149.359 Y97.795 E.02671
G1 X149.743 Y97.818 F9000
;TYPE:Outer wall
;WIDTH:0.399999
G1 F3600
G1 X149.775 Y98.7 E.02565
G3 X149.792 Y100.869 I-54.01 J1.522 E.06314
G3 X149.429 Y93.931 I-49.789 J-.869 E8.90163
G3 X149.698 Y96.968 I-53.664 J6.291 E.08873
G1 X149.741 Y97.779 E.02363
; stop printing object Cylinder id:0 copy 0
;LAYER_CHANGE
;Z:2.2
;HEIGHT:0.2
;BEFORE_LAYER_CHANGE
;2.2
G92 E0

G1 E-.9 F2700
;AFTER_LAYER_CHANGE
;2.2
;_SET_FAN_SPEED_CHANGING_LAYER
; printing object Cylinder id:0 copy 0
G1 X148.963 Y97.893 Z2.6 F9000
G1 Z2.2
G1 E.9 F2100
;TYPE:Inner wall
;WIDTH:0.449999
G1 F4800
G1 X148.988 Y98.72 E.02745
G3 X149.003 Y100.855 I-51.063 J1.445 E.07084
G3 X148.337 Y91.912 I-49.002 J-.845 E9.91684
G3 X148.956 Y97.854 I-50.412 J8.253 E.19829
M73 P21 R8
G1 X149.37 Y97.879 F9000
G1 F4800
G1 X149.394 Y98.709 E.02757
G3 X149.41 Y100.863 I-51.487 J1.457 E.07143
G3 X148.738 Y91.845 I-49.409 J-.852 E9.99919
G3 X149.362 Y97.84 I-50.831 J8.322 E.20005
M73 P22 R8
G1 X149.752 Y97.865 F9000
;TYPE:Outer wall
;WIDTH:0.399999
G1 F3600
G1 X149.776 Y98.699 E.02428
G3 X149.792 Y100.869 I-51.885 J1.468 E.06314
G3 X149.115 Y91.781 I-49.791 J-.859 E8.83883
G3 X149.744 Y97.826 I-51.224 J8.386 E.17694
; stop printing object Cylinder id:0 copy 0
;LAYER_CHANGE
;Z:2.4
;HEIGHT:0.2
;BEFORE_LAYER_CHANGE
;2.4
G92 E0

G1 E-.9 F2700
;AFTER_LAYER_CHANGE
;2.4
;_SET_FAN_SPEED_CHANGING_LAYER
; printing object Cylinder id:0 copy 0
G1 X148.964 Y97.934 Z2.8 F9000
G1 Z2.4
G1 E.9 F2100
;TYPE:Inner wall
;WIDTH:0.449999
G1 F4800
G1 X149.005 Y99.573 E.0544
G3 X149.003 Y100.855 I-50.768 J.581 E.04253
G3 X148.11 Y90.647 I-48.998 J-.856 E9.87346
G3 X148.956 Y97.864 I-49.873 J9.508 E.24125
M73 P23 R8
G1 X148.96 Y97.894 E.00102
G1 X149.371 Y97.923 F9000
G1 F4800
G1 X149.412 Y99.57 E.05463
G3 X149.41 Y100.863 I-51.19 J.586 E.04288
G3 X148.51 Y90.57 I-49.405 J-.863 E9.95549
G3 X149.363 Y97.846 I-50.288 J9.586 E.24323
M73 P24 R8
G1 X149.367 Y97.884 E.00125
G1 X149.753 Y97.913 F9000
;TYPE:Outer wall
;WIDTH:0.399999
G1 F3600
G1 X149.794 Y99.566 E.04811
G3 X149.792 Y100.869 I-51.587 J.59 E.03791
G3 X148.885 Y90.497 I-49.787 J-.87 E8.80024
G3 X149.745 Y97.829 I-50.678 J9.659 E.21499
G1 X149.749 Y97.874 E.00129
; stop printing object Cylinder id:0 copy 0
;LAYER_CHANGE
;Z:2.6
;HEIGHT:0.2
;BEFORE_LAYER_CHANGE
;2.6
G92 E0

G1 E-.9 F2700
;AFTER_LAYER_CHANGE
;2.6
;_SET_FAN_SPEED_CHANGING_LAYER
; printing object Cylinder id:0 copy 0
G1 X148.966 Y97.983 Z3 F9000
G1 Z2.6
G1 E.9 F2100
;TYPE:Inner wall
;WIDTH:0.449999
G1 F4800
G1 X149.006 Y99.576 E.05287
G3 X149.003 Y100.855 I-51.096 J.515 E.04244
G3 X148.742 Y94.875 I-49.002 J-.855 E10.01618
G3 X148.961 Y97.872 I-50.832 J5.216 E.09968
M73 P25 R8
G1 X148.964 Y97.943 E.00235
G1 X149.372 Y97.972 F9000
G1 F4800
G1 X149.414 Y99.572 E.05311
G3 X149.41 Y100.863 I-51.524 J.52 E.04279
G3 X149.147 Y94.834 I-49.409 J-.862 E10.0994
G3 X149.368 Y97.854 I-51.257 J5.259 E.10048
G1 X149.371 Y97.932 E.00258
G1 X149.754 Y97.962 F9000
;TYPE:Outer wall
;WIDTH:0.399999
G1 F3600
G1 X149.796 Y99.569 E.04678
G3 X149.792 Y100.869 I-51.924 J.524 E.03783
M73 P26 R8
G3 X149.527 Y94.794 I-49.791 J-.869 E8.92744
G3 X149.749 Y97.838 I-51.656 J5.299 E.0888
G1 X149.753 Y97.922 E.00246
; stop printing object Cylinder id:0 copy 0
;LAYER_CHANGE
;Z:2.8
;HEIGHT:0.2
;BEFORE_LAYER_CHANGE
;2.8
G92 E0

G1 E-.9 F2700
;AFTER_LAYER_CHANGE
;2.8
;_SET_FAN_SPEED_CHANGING_LAYER
; printing object Cylinder id:0 copy 0
G1 X148.963 Y98.046 Z3.2 F9000
G1 Z2.8
G1 E.9 F2100
;TYPE:Inner wall
;WIDTH:0.449999
G1 F4800
G1 X148.986 Y98.721 E.02242
G3 X149.003 Y100.855 I-53.123 J1.496 E.0708
G3 X148.645 Y94.025 I-49 J-.856 E9.98721
G3 X148.911 Y97.019 I-52.782 J6.192 E.09971
M73 P27 R8
G1 X148.961 Y98.006 E.03278
G1 X149.369 Y98.028 F9000
G1 F4800
G1 X149.393 Y98.711 E.02266
G3 X149.41 Y100.863 I-53.568 J1.508 E.07138
G3 X149.049 Y93.976 I-49.407 J-.863 E10.07019
G3 X149.317 Y96.994 I-53.224 J6.242 E.10051
G1 X149.367 Y97.988 E.03301
G1 X149.751 Y98.012 F9000
;TYPE:Outer wall
;WIDTH:0.399999
G1 F3600
G1 X149.775 Y98.701 E.02007
G3 X149.792 Y100.869 I-53.985 J1.52 E.0631
G3 X149.429 Y93.931 I-49.789 J-.869 E8.90163
G3 X149.698 Y96.971 I-53.639 J6.29 E.08883
M73 P28 R8
G1 X149.749 Y97.972 E.02916
; stop printing object Cylinder id:0 copy 0
;LAYER_CHANGE
;Z:3
;HEIGHT:0.2
;BEFORE_LAYER_CHANGE
;3
G92 E0

G1 E-.9 F2700
;AFTER_LAYER_CHANGE
;3
;_SET_FAN_SPEED_CHANGING_LAYER
; printing object Cylinder id:0 copy 0
G1 X148.965 Y98.096 Z3.4 F9000
G1 Z3
G1 E.9 F2100
;TYPE:Inner wall
;WIDTH:0.449999
G1 F4800
G1 X148.986 Y98.722 E.02077
G3 X149.003 Y100.855 I-53.117 J1.495 E.07079
G3 X148.645 Y94.025 I-49 J-.856 E9.98721
G3 X148.911 Y97.02 I-52.776 J6.191 E.09974
M73 P29 R8
G1 X148.963 Y98.056 E.03441
G1 X149.372 Y98.078 F9000
G1 F4800
G1 X149.393 Y98.711 E.021
G3 X149.41 Y100.863 I-53.562 J1.508 E.07137
G3 X149.049 Y93.976 I-49.407 J-.863 E10.07019
G3 X149.317 Y96.995 I-53.218 J6.242 E.10054
G1 X149.37 Y98.038 E.03465
G1 X149.753 Y98.062 F9000
;TYPE:Outer wall
;WIDTH:0.399999
G1 F3600
G1 X149.775 Y98.701 E.01862
G3 X149.792 Y100.869 I-53.979 J1.519 E.06309
G3 X149.429 Y93.931 I-49.789 J-.869 E8.90163
G3 X149.698 Y96.972 I-53.633 J6.29 E.08885
M73 P30 R7
G1 X149.751 Y98.022 E.03059
; stop printing object Cylinder id:0 copy 0
;LAYER_CHANGE
;Z:3.2
;HEIGHT:0.2
;BEFORE_LAYER_CHANGE
;3.2
G92 E0

