; HEADER_BLOCK_START
; generated by OrcaSlicer 2.3.0 on 2025-04-19 at 15:46:08
; total layer number: 38
;_GP_TOTAL_LAYER_NUMBER_PLACEHOLDER
; filament_density: 1.24,1.24
; filament_diameter: 1.75,1.75
; max_z_height: 7.60
; HEADER_BLOCK_END

; THUMBNAIL_BLOCK_START

;
; THUMBNAIL_BLOCK_END

; THUMBNAIL_BLOCK_START

;
; THUMBNAIL_BLOCK_END

; external perimeters extrusion width = 0.40mm
; perimeters extrusion width = 0.45mm
; infill extrusion width = 0.45mm
; solid infill extrusion width = 0.40mm
; top infill extrusion width = 0.40mm
; first layer extrusion width = 0.50mm

; EXECUTABLE_BLOCK_START
M73 P0 R3
M201 X10000 Y10000 Z500 E5000
M203 X500 Y500 Z10 E60
M204 P10000 R1000 T10000
M205 X8.00 Y8.00 Z0.40 E5.00 ; sets the jerk limits, mm/sec
;TYPE:Custom
G90 ; use absolute coordinates
M83 ; extruder relative mode
M204 S10000 T1000
M104 S220 ; set extruder temp
M140 S55 ; set bed temp
G28 ; home all
G1 Y1.0 Z0.3 F1000 ; move print head up
M190 S55 ; wait for bed temp
M109 S220 ; wait for extruder temp
G92 E0.0
G90
G21
M83 ; use relative distances for extrusion
; Filament gcode
T0
M106 S0
;LAYER_CHANGE
;Z:0.2
;HEIGHT:0.2
;BEFORE_LAYER_CHANGE
;0.2
G92 E0

G1 E-.9 F2700
;AFTER_LAYER_CHANGE
;0.2
;_SET_FAN_SPEED_CHANGING_LAYER
M204 S500
; printing object Cube id:0 copy 0
G1 X102.676 Y102.676 F9000
G1 Z.6
G1 Z.2
G1 E.9 F2100
;TYPE:Inner wall
;WIDTH:0.499999
G1 F2018
G1 X97.324 Y102.676 E.19933
G1 X97.324 Y97.324 E.19933
G1 X102.676 Y97.324 E.19933
G1 X102.676 Y102.636 E.19784
M73 P1 R3
G1 X103.133 Y103.133 F9000
G1 F2018
G1 X96.867 Y103.133 E.23338
G1 X96.867 Y96.867 E.23338
G1 X103.133 Y96.867 E.23338
G1 X103.133 Y103.093 E.23189
G1 X103.59 Y103.59 F9000
;TYPE:Outer wall
G1 F2018
G1 X96.41 Y103.59 E.26743
G1 X96.41 Y96.41 E.26743
G1 X103.59 Y96.41 E.26743
G1 X103.59 Y103.55 E.26594
M73 P2 R3
G1 E-.9 F2700
G1 X101.56 Y97.461 Z.6 F9000
G1 Z.2
G1 E.9 F2100
;TYPE:Bottom surface
;WIDTH:0.525935
G1 F2018
G1 X102.333 Y98.235 E.04304
G1 X102.333 Y98.918 E.02689
G1 X101.082 Y97.667 E.06962
G1 X100.399 Y97.667 E.02689
G1 X102.333 Y99.601 E.10764
G1 X102.333 Y100.284 E.02689
G1 X99.716 Y97.667 E.14566
G1 X99.033 Y97.667 E.02689
G1 X102.333 Y100.967 E.18369
G1 X102.333 Y101.65 E.02689
G1 X98.35 Y97.667 E.22171
G1 X97.667 Y97.667 E.02688
G1 X102.333 Y102.333 E.25972
G1 X101.65 Y102.333 E.02689
M73 P3 R3
G1 X97.667 Y98.35 E.2217
G1 X97.667 Y99.033 E.02689
G1 X100.967 Y102.333 E.18368
G1 X100.284 Y102.333 E.02689
G1 X97.667 Y99.716 E.14566
G1 X97.667 Y100.399 E.02689
G1 X99.601 Y102.333 E.10763
G1 X98.918 Y102.333 E.02689
G1 X97.667 Y101.082 E.06961
G1 X97.667 Y101.766 E.02689
G1 X98.44 Y102.539 E.04304
; stop printing object Cube id:0 copy 0
M106 S255
;LAYER_CHANGE
;Z:0.4
;HEIGHT:0.2
;BEFORE_LAYER_CHANGE
;0.4
G92 E0

G1 E-.9 F2700
;AFTER_LAYER_CHANGE
;0.4
;_SET_FAN_SPEED_CHANGING_LAYER
M204 S1000
; printing object Cube id:0 copy 0
G1 X102.851 Y102.851 Z.8 F9000
G1 Z.4
G1 E.9 F2100
;TYPE:Inner wall
;WIDTH:0.449999
G1 F2489
G1 X97.149 Y102.851 E.18914
G1 X97.149 Y97.149 E.18914
G1 X102.851 Y97.149 E.18914
G1 X102.851 Y102.811 E.18781
M73 P4 R3
G1 X103.258 Y103.258 F9000
G1 F2489
G1 X96.742 Y103.258 E.21614
G1 X96.742 Y96.742 E.21614
G1 X103.258 Y96.742 E.21614
G1 X103.258 Y103.218 E.21482
G1 X103.64 Y103.64 F9000
;TYPE:Outer wall
;WIDTH:0.399999
G1 F2489
G1 X96.36 Y103.64 E.21183
G1 X96.36 Y96.36 E.21183
G1 X103.64 Y96.36 E.21183
G1 X103.64 Y103.6 E.21067
G1 E-.9 F2700
G1 X101.123 Y102.469 Z.8 F9000
G1 Z.4
M73 P5 R3
G1 E.9 F2100
;TYPE:Internal solid infill
G1 F2489
G1 X102.469 Y102.469 E.03916
G1 X102.469 Y101.123 E.03916
G1 X101.151 Y102.44 E.05422
G1 X102.102 Y102.028 F9000
;WIDTH:0.47427
G1 F2489
G1 X102.048 Y102.028 E.0019
G1 X102.021 Y102.075 E.0019
G1 X102.048 Y102.121 E.0019
G1 X102.108 Y102.109 E.00218
G1 X102.731 Y100.403 F9000
;WIDTH:0.404463
G1 F2489
G1 X100.563 Y102.571 E.09032
G1 X100.052 Y102.571 E.01506
G1 X102.571 Y100.052 E.10493
G1 X102.571 Y99.541 E.01506
G1 X99.541 Y102.571 E.12623
G1 X99.029 Y102.571 E.01506
G1 X102.571 Y99.029 E.14754
G1 X102.571 Y98.518 E.01506
G1 X98.518 Y102.571 E.16884
G1 X98.007 Y102.571 E.01506
G1 X102.571 Y98.007 E.19014
G1 X102.571 Y97.496 E.01506
G1 X97.496 Y102.571 E.21145
G1 X97.429 Y102.571 E.00195
G1 X97.429 Y102.125 E.01312
G1 X102.125 Y97.429 E.19565
G1 X101.614 Y97.429 E.01506
M73 P6 R3
G1 X97.429 Y101.614 E.17435
G1 X97.429 Y101.103 E.01506
G1 X101.103 Y97.429 E.15304
G1 X100.591 Y97.429 E.01506
G1 X97.429 Y100.591 E.13174
G1 X97.429 Y100.08 E.01506
G1 X100.08 Y97.429 E.11044
G1 X99.569 Y97.429 E.01506
G1 X97.429 Y99.569 E.08914
G1 X97.429 Y99.058 E.01506
G1 X99.058 Y97.429 E.06783
G1 X98.546 Y97.429 E.01506
G1 X97.429 Y98.546 E.04653
G1 X97.429 Y98.035 E.01506
G1 X98.196 Y97.269 E.03192
G1 X97.536 Y97.478 F9000
;WIDTH:0.38292
G1 F2489
G1 X97.472 Y97.515 E.00204
G1 X97.537 Y97.55 E.00204
; stop printing object Cube id:0 copy 0
;LAYER_CHANGE
;Z:0.6
;HEIGHT:0.2
;BEFORE_LAYER_CHANGE
;0.6
G92 E0

G1 E-.9 F2700
;AFTER_LAYER_CHANGE
;0.6
;_SET_FAN_SPEED_CHANGING_LAYER
; printing object Cube id:0 copy 0
G1 X102.851 Y102.851 Z1 F9000
G1 Z.6
G1 E.9 F2100
;TYPE:Inner wall
;WIDTH:0.449999
G1 F2544
G1 X97.149 Y102.851 E.18914
G1 X97.149 Y97.149 E.18914
G1 X102.851 Y97.149 E.18914
G1 X102.851 Y102.811 E.18781
M73 P7 R3
G1 X103.258 Y103.258 F9000
G1 F2544
G1 X96.742 Y103.258 E.21614
G1 X96.742 Y96.742 E.21614
G1 X103.258 Y96.742 E.21614
G1 X103.258 Y103.218 E.21482
G1 X103.64 Y103.64 F9000
M73 P7 R2
;TYPE:Outer wall
;WIDTH:0.399999
G1 F2544
G1 X96.36 Y103.64 E.21183
G1 X96.36 Y96.36 E.21183
G1 X103.64 Y96.36 E.21183
G1 X103.64 Y103.6 E.21067
G1 E-.9 F2700
G1 X97.536 Y102.448 Z1 F9000
G1 Z.6
M73 P8 R2
G1 E.9 F2100
;TYPE:Internal solid infill
;WIDTH:0.38292
G1 F2544
G1 X97.472 Y102.485 E.00204
G1 X97.537 Y102.52 E.00204
G1 X100.403 Y97.269 F9000
;WIDTH:0.404463
G1 F2544
G1 X102.571 Y99.437 E.09032
G1 X102.571 Y99.948 E.01506
G1 X100.052 Y97.429 E.10493
G1 X99.541 Y97.429 E.01506
G1 X102.571 Y100.459 E.12623
G1 X102.571 Y100.971 E.01506
G1 X99.029 Y97.429 E.14754
G1 X98.518 Y97.429 E.01506
G1 X102.571 Y101.482 E.16884
G1 X102.571 Y101.993 E.01506
G1 X98.007 Y97.429 E.19014
G1 X97.496 Y97.429 E.01506
G1 X102.571 Y102.504 E.21145
G1 X102.571 Y102.571 E.00195
G1 X102.125 Y102.571 E.01312
G1 X97.429 Y97.875 E.19565
G1 X97.429 Y98.386 E.01506
G1 X101.614 Y102.571 E.17435
G1 X101.103 Y102.571 E.01506
G1 X97.429 Y98.897 E.15304
G1 X97.429 Y99.409 E.01506
M73 P9 R2
G1 X100.591 Y102.571 E.13174
G1 X100.08 Y102.571 E.01506
G1 X97.429 Y99.92 E.11044
G1 X97.429 Y100.431 E.01506
G1 X99.569 Y102.571 E.08914
G1 X99.058 Y102.571 E.01506
G1 X97.429 Y100.942 E.06783
G1 X97.429 Y101.454 E.01506
G1 X98.546 Y102.571 E.04653
G1 X98.035 Y102.571 E.01506
G1 X97.269 Y101.804 E.03192
G1 X101.123 Y97.531 F9000
;WIDTH:0.399999
G1 F2544
G1 X102.469 Y98.877 E.05539
G1 X102.469 Y97.531 E.03916
G1 X101.163 Y97.531 E.038
G1 X102.102 Y97.879 F9000
;WIDTH:0.47427
G1 F2544
G1 X102.048 Y97.879 E.0019
G1 X102.021 Y97.925 E.0019
G1 X102.048 Y97.972 E.0019
G1 X102.108 Y97.96 E.00218
; stop printing object Cube id:0 copy 0
;LAYER_CHANGE
;Z:0.8
;HEIGHT:0.2
;BEFORE_LAYER_CHANGE
;0.8
G92 E0

G1 E-.9 F2700
;AFTER_LAYER_CHANGE
;0.8
;_SET_FAN_SPEED_CHANGING_LAYER
; printing object Cube id:0 copy 0
G1 X102.851 Y102.851 Z1.2 F9000
G1 Z.8
G1 E.9 F2100
;TYPE:Inner wall
;WIDTH:0.449999
G1 F1552
G1 X97.149 Y102.851 E.18914
G1 X97.149 Y97.149 E.18914
G1 X102.851 Y97.149 E.18914
M73 P10 R2
G1 X102.851 Y102.811 E.18781
G1 X103.258 Y103.258 F9000
G1 F1552
G1 X96.742 Y103.258 E.21614
G1 X96.742 Y96.742 E.21614
G1 X103.258 Y96.742 E.21614
G1 X103.258 Y103.218 E.21482
G1 X103.64 Y103.64 F9000
;TYPE:Outer wall
;WIDTH:0.399999
G1 F1552
G1 X96.36 Y103.64 E.21183
G1 X96.36 Y96.36 E.21183
M73 P11 R2
G1 X103.64 Y96.36 E.21183
G1 X103.64 Y103.6 E.21067
G1 E-.9 F2700
G1 X102.546 Y100.029 Z1.2 F9000
G1 Z.8
G1 E.9 F2100
;TYPE:Sparse infill
;WIDTH:0.45
G1 F1552
G1 X102.546 Y98.401 E.05401
G1 X101.599 Y97.454 E.04438
G1 X97.454 Y97.454 E.1375
G1 X102.546 Y102.546 E.23883
G1 X98.401 Y102.546 E.1375
G1 X97.454 Y101.599 E.04438
M73 P12 R2
G1 X97.454 Y99.971 E.05401
; stop printing object Cube id:0 copy 0
;LAYER_CHANGE
;Z:1
;HEIGHT:0.2
;BEFORE_LAYER_CHANGE
;1
G92 E0

G1 E-.9 F2700
;AFTER_LAYER_CHANGE
;1
;_SET_FAN_SPEED_CHANGING_LAYER
; printing object Cube id:0 copy 0
G1 X102.851 Y102.851 Z1.4 F9000
G1 Z1
G1 E.9 F2100
;TYPE:Inner wall
;WIDTH:0.449999
G1 F1552
G1 X97.149 Y102.851 E.18914
G1 X97.149 Y97.149 E.18914
G1 X102.851 Y97.149 E.18914
G1 X102.851 Y102.811 E.18781
G1 X103.258 Y103.258 F9000
G1 F1552
G1 X96.742 Y103.258 E.21614
G1 X96.742 Y96.742 E.21614
G1 X103.258 Y96.742 E.21614
M73 P13 R2
G1 X103.258 Y103.218 E.21482
G1 X103.64 Y103.64 F9000
;TYPE:Outer wall
;WIDTH:0.399999
G1 F1552
G1 X96.36 Y103.64 E.21183
G1 X96.36 Y96.36 E.21183
G1 X103.64 Y96.36 E.21183
G1 X103.64 Y103.6 E.21067
G1 E-.9 F2700
G1 X102.546 Y100.029 Z1.4 F9000
G1 Z1
G1 E.9 F2100
M73 P14 R2
;TYPE:Sparse infill
;WIDTH:0.45
G1 F1552
G1 X102.546 Y98.401 E.05401
G1 X101.599 Y97.454 E.04438
G1 X97.454 Y97.454 E.1375
G1 X102.546 Y102.546 E.23883
G1 X98.401 Y102.546 E.1375
G1 X97.454 Y101.599 E.04438
G1 X97.454 Y99.971 E.05401
; stop printing object Cube id:0 copy 0
;LAYER_CHANGE
;Z:1.2
;HEIGHT:0.2
;BEFORE_LAYER_CHANGE
;1.2
G92 E0

G1 E-.9 F2700
;AFTER_LAYER_CHANGE
;1.2
;_SET_FAN_SPEED_CHANGING_LAYER
; printing object Cube id:0 copy 0
G1 X102.851 Y102.851 Z1.6 F9000
G1 Z1.2
G1 E.9 F2100
;TYPE:Inner wall
;WIDTH:0.449999
G1 F1552
G1 X97.149 Y102.851 E.18914
G1 X97.149 Y97.149 E.18914
G1 X102.851 Y97.149 E.18914
G1 X102.851 Y102.811 E.18781
M73 P15 R2
G1 X103.258 Y103.258 F9000
G1 F1552
G1 X96.742 Y103.258 E.21614
G1 X96.742 Y96.742 E.21614
G1 X103.258 Y96.742 E.21614
G1 X103.258 Y103.218 E.21482
G1 X103.64 Y103.64 F9000
;TYPE:Outer wall
;WIDTH:0.399999
G1 F1552
G1 X96.36 Y103.64 E.21183
G1 X96.36 Y96.36 E.21183
G1 X103.64 Y96.36 E.21183
M73 P16 R2
G1 X103.64 Y103.6 E.21067
G1 E-.9 F2700
G1 X102.546 Y100.029 Z1.6 F9000
G1 Z1.2
G1 E.9 F2100
;TYPE:Sparse infill
;WIDTH:0.45
G1 F1552
G1 X102.546 Y98.401 E.05401
G1 X101.599 Y97.454 E.04438
G1 X97.454 Y97.454 E.1375
G1 X102.546 Y102.546 E.23883
G1 X98.401 Y102.546 E.1375
G1 X97.454 Y101.599 E.04438
G1 X97.454 Y99.971 E.05401
; stop printing object Cube id:0 copy 0
;LAYER_CHANGE
;Z:1.4
;HEIGHT:0.2
;BEFORE_LAYER_CHANGE
;1.4
G92 E0

G1 E-.9 F2700
;AFTER_LAYER_CHANGE
;1.4
;_SET_FAN_SPEED_CHANGING_LAYER
; printing object Cube id:0 copy 0
G1 X102.851 Y102.851 Z1.8 F9000
G1 Z1.4
M73 P17 R2
G1 E.9 F2100
;TYPE:Inner wall
;WIDTH:0.449999
G1 F1552
G1 X97.149 Y102.851 E.18914
G1 X97.149 Y97.149 E.18914
G1 X102.851 Y97.149 E.18914
G1 X102.851 Y102.811 E.18781
G1 X103.258 Y103.258 F9000
G1 F1552
G1 X96.742 Y103.258 E.21614
G1 X96.742 Y96.742 E.21614
G1 X103.258 Y96.742 E.21614
G1 X103.258 Y103.218 E.21482
M73 P18 R2
G1 X103.64 Y103.64 F9000
;TYPE:Outer wall
;WIDTH:0.399999
G1 F1552
G1 X96.36 Y103.64 E.21183
G1 X96.36 Y96.36 E.21183
G1 X103.64 Y96.36 E.21183
G1 X103.64 Y103.6 E.21067
G1 E-.9 F2700
G1 X102.546 Y100.029 Z1.8 F9000
G1 Z1.4
G1 E.9 F2100
;TYPE:Sparse infill
;WIDTH:0.45
G1 F1552
G1 X102.546 Y98.401 E.05401
G1 X101.599 Y97.454 E.04438
G1 X97.454 Y97.454 E.1375
G1 X102.546 Y102.546 E.23883
M73 P19 R2
G1 X98.401 Y102.546 E.1375
G1 X97.454 Y101.599 E.04438
G1 X97.454 Y99.971 E.05401
; stop printing object Cube id:0 copy 0
;LAYER_CHANGE
;Z:1.6
;HEIGHT:0.2
;BEFORE_LAYER_CHANGE
;1.6
G92 E0

G1 E-.9 F2700
;AFTER_LAYER_CHANGE
;1.6
;_SET_FAN_SPEED_CHANGING_LAYER
; printing object Cube id:0 copy 0
G1 X102.851 Y102.851 Z2 F9000
G1 Z1.6
G1 E.9 F2100
;TYPE:Inner wall
;WIDTH:0.449999
G1 F1552
G1 X97.149 Y102.851 E.18914
G1 X97.149 Y97.149 E.18914
G1 X102.851 Y97.149 E.18914
G1 X102.851 Y102.811 E.18781
G1 X103.258 Y103.258 F9000
M73 P20 R2
G1 F1552
G1 X96.742 Y103.258 E.21614
G1 X96.742 Y96.742 E.21614
G1 X103.258 Y96.742 E.21614
G1 X103.258 Y103.218 E.21482
G1 X103.64 Y103.64 F9000
;TYPE:Outer wall
;WIDTH:0.399999
G1 F1552
G1 X96.36 Y103.64 E.21183
G1 X96.36 Y96.36 E.21183
G1 X103.64 Y96.36 E.21183
G1 X103.64 Y103.6 E.21067
M73 P21 R2
G1 E-.9 F2700
G1 X102.546 Y100.029 Z2 F9000
G1 Z1.6
G1 E.9 F2100
;TYPE:Sparse infill
;WIDTH:0.45
G1 F1552
G1 X102.546 Y98.401 E.05401
G1 X101.599 Y97.454 E.04438
G1 X97.454 Y97.454 E.1375
G1 X102.546 Y102.546 E.23883
G1 X98.401 Y102.546 E.1375
G1 X97.454 Y101.599 E.04438
G1 X97.454 Y99.971 E.05401
; stop printing object Cube id:0 copy 0
;LAYER_CHANGE
;Z:1.8
;HEIGHT:0.2
;BEFORE_LAYER_CHANGE
;1.8
G92 E0

G1 E-.9 F2700
;AFTER_LAYER_CHANGE
;1.8
;_SET_FAN_SPEED_CHANGING_LAYER
; printing object Cube id:0 copy 0
G1 X102.851 Y102.851 Z2.2 F9000
G1 Z1.8
G1 E.9 F2100
;TYPE:Inner wall
;WIDTH:0.449999
G1 F1552
G1 X97.149 Y102.851 E.18914
G1 X97.149 Y97.149 E.18914
M73 P22 R2
G1 X102.851 Y97.149 E.18914
G1 X102.851 Y102.811 E.18781
G1 X103.258 Y103.258 F9000
G1 F1552
G1 X96.742 Y103.258 E.21614
G1 X96.742 Y96.742 E.21614
G1 X103.258 Y96.742 E.21614
G1 X103.258 Y103.218 E.21482
G1 X103.64 Y103.64 F9000
M73 P23 R2
;TYPE:Outer wall
;WIDTH:0.399999
G1 F1552
G1 X96.36 Y103.64 E.21183
G1 X96.36 Y96.36 E.21183
G1 X103.64 Y96.36 E.21183
G1 X103.64 Y103.6 E.21067
G1 E-.9 F2700
G1 X102.546 Y100.029 Z2.2 F9000
G1 Z1.8
G1 E.9 F2100
;TYPE:Sparse infill
;WIDTH:0.45
G1 F1552
G1 X102.546 Y98.401 E.05401
G1 X101.599 Y97.454 E.04438
G1 X97.454 Y97.454 E.1375
G1 X102.546 Y102.546 E.23883
G1 X98.401 Y102.546 E.1375
M73 P24 R2
G1 X97.454 Y101.599 E.04438
G1 X97.454 Y99.971 E.05401
; stop printing object Cube id:0 copy 0
;LAYER_CHANGE
;Z:2
;HEIGHT:0.2
;BEFORE_LAYER_CHANGE
;2
G92 E0

G1 E-.9 F2700
;AFTER_LAYER_CHANGE
;2
;_SET_FAN_SPEED_CHANGING_LAYER
; printing object Cube id:0 copy 0
G1 X102.851 Y102.851 Z2.4 F9000
G1 Z2
G1 E.9 F2100
;TYPE:Inner wall
;WIDTH:0.449999
G1 F1552
G1 X97.149 Y102.851 E.18914
G1 X97.149 Y97.149 E.18914
G1 X102.851 Y97.149 E.18914
G1 X102.851 Y102.811 E.18781
G1 X103.258 Y103.258 F9000
G1 F1552
G1 X96.742 Y103.258 E.21614
G1 X96.742 Y96.742 E.21614
M73 P25 R2
G1 X103.258 Y96.742 E.21614
G1 X103.258 Y103.218 E.21482
G1 X103.64 Y103.64 F9000
;TYPE:Outer wall
;WIDTH:0.399999
G1 F1552
G1 X96.36 Y103.64 E.21183
G1 X96.36 Y96.36 E.21183
G1 X103.64 Y96.36 E.21183
G1 X103.64 Y103.6 E.21067
G1 E-.9 F2700
M73 P26 R2
G1 X102.546 Y100.029 Z2.4 F9000
G1 Z2
G1 E.9 F2100
;TYPE:Sparse infill
;WIDTH:0.45
G1 F1552
G1 X102.546 Y98.401 E.05401
G1 X101.599 Y97.454 E.04438
G1 X97.454 Y97.454 E.1375
G1 X102.546 Y102.546 E.23883
G1 X98.401 Y102.546 E.1375
G1 X97.454 Y101.599 E.04438
G1 X97.454 Y99.971 E.05401
; stop printing object Cube id:0 copy 0
;LAYER_CHANGE
;Z:2.2
;HEIGHT:0.2
;BEFORE_LAYER_CHANGE
;2.2
G92 E0

G1 E-.9 F2700
;AFTER_LAYER_CHANGE
;2.2
;_SET_FAN_SPEED_CHANGING_LAYER
; printing object Cube id:0 copy 0
G1 X102.851 Y102.851 Z2.6 F9000
G1 Z2.2
G1 E.9 F2100
;TYPE:Inner wall
;WIDTH:0.449999
G1 F1552
G1 X97.149 Y102.851 E.18914
G1 X97.149 Y97.149 E.18914
G1 X102.851 Y97.149 E.18914
M73 P27 R2
G1 X102.851 Y102.811 E.18781
G1 X103.258 Y103.258 F9000
G1 F1552
G1 X96.742 Y103.258 E.21614
G1 X96.742 Y96.742 E.21614
G1 X103.258 Y96.742 E.21614
G1 X103.258 Y103.218 E.21482
G1 X103.64 Y103.64 F9000
;TYPE:Outer wall
;WIDTH:0.399999
G1 F1552
G1 X96.36 Y103.64 E.21183
G1 X96.36 Y96.36 E.21183
M73 P28 R2
G1 X103.64 Y96.36 E.21183
G1 X103.64 Y103.6 E.21067
G1 E-.9 F2700
G1 X102.546 Y100.029 Z2.6 F9000
G1 Z2.2
G1 E.9 F2100
;TYPE:Sparse infill
;WIDTH:0.45
G1 F1552
G1 X102.546 Y98.401 E.05401
G1 X101.599 Y97.454 E.04438
G1 X97.454 Y97.454 E.1375
G1 X102.546 Y102.546 E.23883
G1 X98.401 Y102.546 E.1375
G1 X97.454 Y101.599 E.04438
M73 P29 R2
G1 X97.454 Y99.971 E.05401
; stop printing object Cube id:0 copy 0
;LAYER_CHANGE
;Z:2.4
;HEIGHT:0.2
;BEFORE_LAYER_CHANGE
;2.4
G92 E0

G1 E-.9 F2700
;AFTER_LAYER_CHANGE
;2.4
;_SET_FAN_SPEED_CHANGING_LAYER
; printing object Cube id:0 copy 0
G1 X102.851 Y102.851 Z2.8 F9000
G1 Z2.4
G1 E.9 F2100
;TYPE:Inner wall
;WIDTH:0.449999
G1 F1551
G1 X97.149 Y102.851 E.18914
G1 X97.149 Y97.149 E.18914
G1 X102.851 Y97.149 E.18914
G1 X102.851 Y102.811 E.18781
G1 X103.258 Y103.258 F9000
G1 F1551
G1 X96.742 Y103.258 E.21614
G1 X96.742 Y96.742 E.21614
